svgs/bca_mobile.svg

<svg id="vector" xmlns="http://www.w3.org/2000/svg" width="192" height="192" viewBox="0 0 50.8 50.800003"><path fill="#00000000" d="m31.8818,42.645c3.3888,-4.1273 9.4644,-3.8421 12.9637,-5.836 0.6648,2.9199 -1.4558,5.9011 -3.904,6.0147 -3.1402,0.0291 -6.2703,-1.3029 -9.0597,-0.1787zM29.3557,37.5744c0.1738,-6.2874 2.5774,-14.9669 9.9697,-14.9802 6.3917,-0.0115 6.7932,8.4631 1.7181,9.7999 -3.9107,1.0301 -7.5792,1.7718 -11.6877,5.1803zM18.9182,42.645C15.5294,38.5177 9.4538,38.8029 5.9545,36.809c-0.6648,2.9199 1.4558,5.9011 3.904,6.0147 3.1402,0.0291 6.2703,-1.3029 9.0597,-0.1787zM25.4,28.3751C24.8185,26.3764 23.9465,24.6563 22.7897,23.1093 21.2503,21.0506 18.0878,19.0786 18.0847,15.1342 18.0812,10.705 21.2893,7.9758 25.4,7.9758c4.1107,0 7.3223,2.7292 7.3153,7.1584 -0.0062,3.9444 -3.1632,5.9182 -4.7051,7.9751C26.8493,24.6581 25.9815,26.3764 25.4,28.3751ZM21.4443,37.5744c-0.1738,-6.2874 -2.5774,-14.9669 -9.9697,-14.9802 -6.3917,-0.0115 -6.7932,8.4631 -1.7181,9.7999 3.9107,1.0301 7.5792,1.7718 11.6877,5.1803z" stroke-linejoin="round" stroke-width="3.175" stroke="#000000" stroke-linecap="round" id="path_0"/></svg>

<svg width="192" height="192" viewBox="0 0 50.8 50.8" xmlns="http://www.w3.org/2000/svg"><path style="fill:none;stroke:#000;stroke-width:3.175;stroke-linecap:round;stroke-linejoin:round;stroke-miterlimit:4;stroke-dasharray:none;stroke-opacity:1" d="M31.882 42.645c3.389-4.127 9.464-3.842 12.963-5.836.665 2.92-1.455 5.901-3.904 6.015-3.14.029-6.27-1.303-9.06-.179zm-2.526-5.07c.173-6.288 2.577-14.968 9.97-14.98 6.391-.012 6.793 8.462 1.717 9.8-3.91 1.03-7.579 1.77-11.687 5.18zm-10.438 5.07c-3.389-4.127-9.464-3.842-12.963-5.836-.665 2.92 1.455 5.901 3.904 6.015 3.14.029 6.27-1.303 9.06-.179zm6.482-14.27a16.21 16.21 0 0 0-2.61-5.266c-1.54-2.058-4.702-4.03-4.705-7.975-.004-4.429 3.204-7.158 7.315-7.158 4.11 0 7.322 2.73 7.315 7.158-.006 3.945-3.163 5.918-4.705 7.975a16.182 16.182 0 0 0-2.61 5.266Zm-3.956 9.2c-.173-6.288-2.577-14.968-9.97-14.98-6.391-.012-6.793 8.462-1.717 9.8 3.91 1.03 7.579 1.77 11.687 5.18z"/></svg>
